findly-builder/apps/searchassist/src/assets/images/icons/User_white.svg

<?xml version="1.0" encoding="UTF-8"?>
<svg width="16px" height="16px" viewBox="0 0 16 16" version="1.1" xmlns="http://www.w3.org/2000/svg" xmlns:xlink="http://www.w3.org/1999/xlink">
    <title>Group 58 Copy</title>
    <g id="Page-1" stroke="none" stroke-width="1" fill="none" fill-rule="evenodd">
        <g id="icons" transform="translate(-164.000000, -41.000000)">
            <g id="Group-58-Copy" transform="translate(164.000000, 41.000000)">
                <rect id="Rectangle-Copy" fill-opacity="0" fill="#D8D8D8" x="0" y="0" width="16" height="16"></rect>
                <path d="M9.58691674,8.68435499 C11.5900104,8.68435499 13.2196735,10.2832013 13.2693429,12.2743306 L13.2705093,12.3679475 L13.2705093,13.1585849 C13.2705093,13.4391907 13.0430334,13.6666667 12.7624276,13.6666667 C12.497411,13.6666667 12.2797849,13.4637637 12.2564222,13.2048307 L12.2543458,13.1585849 L12.2543458,12.3679475 C12.2543458,10.9215522 11.1031296,9.74403788 9.66698991,9.70169733 L9.58691674,9.70051845 L6.68359256,9.70051845 C5.23719725,9.70051845 4.0596829,10.8517347 4.01734234,12.2878744 L4.01616346,12.3679475 L4.01616346,13.1585849 C4.01616346,13.4391907 3.78868752,13.6666667 3.50808173,13.6666667 C3.24306515,13.6666667 3.02543909,13.4637637 3.00207636,13.2048307 L3,13.1585849 L3,12.3679475 C3,10.3648539 4.59884627,8.73519079 6.58997565,8.68552141 L6.68359256,8.68435499 L9.58691674,8.68435499 Z M8.15469655,2.33333333 C9.77390651,2.33333333 11.0865355,3.64596235 11.0865355,5.26517231 C11.0865355,6.88438226 9.77390651,8.19701128 8.15469655,8.19701128 C6.5354866,8.19701128 5.22285758,6.88438226 5.22285758,5.26517231 C5.22285758,3.64596235 6.5354866,2.33333333 8.15469655,2.33333333 Z M8.15469655,3.3494968 C7.09669818,3.3494968 6.23902104,4.20717394 6.23902104,5.26517231 C6.23902104,6.32317068 7.09669818,7.18084782 8.15469655,7.18084782 C9.21269492,7.18084782 10.0703721,6.32317068 10.0703721,5.26517231 C10.0703721,4.20717394 9.21269492,3.3494968 8.15469655,3.3494968 Z" id="Shape" fill="#F2F3F5" fill-rule="nonzero"></path>
            </g>
        </g>
    </g>
</svg>

<svg width="16" height="16" xmlns="http://www.w3.org/2000/svg"><g fill="none" fill-rule="evenodd"><path d="M0 0h16v16H0z"/><path d="M9.587 8.684a3.684 3.684 0 0 1 3.682 3.59l.002.094v.79a.508.508 0 0 1-1.015.047l-.002-.046v-.791a2.667 2.667 0 0 0-2.587-2.666l-.08-.001H6.684a2.667 2.667 0 0 0-2.667 2.587v.87a.508.508 0 0 1-1.015.047L3 13.159v-.791a3.684 3.684 0 0 1 3.59-3.682l.094-.002h2.903Zm-1.432-6.35a2.932 2.932 0 1 1 0 5.863 2.932 2.932 0 0 1 0-5.864Zm0 1.015a1.916 1.916 0 1 0 0 3.832 1.916 1.916 0 0 0 0-3.832Z" fill="#F2F3F5" fill-rule="nonzero"/></g></svg>
